icons/HidePassword.svg

<svg width="24" height="24" viewBox="0 0 24 24" fill="none" xmlns="http://www.w3.org/2000/svg">
<path d="M17.311 18.047C17.4129 18.1437 17.5486 18.1968 17.6891 18.195C17.8296 18.1931 17.9638 18.1365 18.0632 18.0372C18.1625 17.9378 18.2191 17.8036 18.221 17.6631C18.2228 17.5226 18.1697 17.3869 18.073 17.285L6.435 5.655C6.33396 5.55303 6.19654 5.49537 6.05298 5.49471C5.90942 5.49405 5.77148 5.55045 5.6695 5.6515C5.56753 5.75255 5.50987 5.88997 5.50921 6.03353C5.50889 6.10461 5.52257 6.17506 5.54947 6.24086C5.57637 6.30665 5.61597 6.36651 5.666 6.417L17.311 18.047ZM17.963 16C19.984 14.66 21.296 12.821 21.296 12C21.296 10.594 17.465 6.1 11.896 6.1C10.7805 6.09899 9.67236 6.27969 8.615 6.635L10.448 8.467C10.9066 8.27246 11.3998 8.17279 11.898 8.174C12.4027 8.17031 12.9032 8.26655 13.3706 8.45718C13.838 8.64781 14.263 8.92906 14.6212 9.28472C14.9793 9.64038 15.2636 10.0634 15.4575 10.5294C15.6514 10.9955 15.7511 11.4952 15.751 12C15.7536 12.4983 15.646 12.9911 15.436 13.443L17.963 16ZM11.899 17.9C13.0956 17.9051 14.2835 17.6968 15.407 17.285L13.561 15.439C13.0466 15.7034 12.4764 15.8406 11.898 15.839C10.8796 15.8359 9.90362 15.4308 9.18228 14.7119C8.46095 13.993 8.05259 13.0184 8.046 12C8.0449 11.4177 8.17765 10.8429 8.434 10.32L6.024 7.9C3.849 9.266 2.494 11.177 2.494 12C2.494 13.4 6.4 17.908 11.9 17.908L11.899 17.9ZM14.111 11.85C14.1113 11.5615 14.0545 11.2758 13.9439 11.0093C13.8333 10.7428 13.6711 10.5008 13.4666 10.2973C13.2622 10.0938 13.0194 9.93266 12.7525 9.82329C12.4855 9.71391 12.1995 9.65842 11.911 9.66C11.8277 9.65725 11.7444 9.66227 11.662 9.675L14.1 12.115C14.1 12.034 14.11 11.946 14.11 11.858L14.111 11.85ZM9.687 11.857C9.69122 12.4413 9.926 13.0002 10.3403 13.4122C10.7545 13.8242 11.3147 14.056 11.899 14.057C11.987 14.057 12.075 14.05 12.17 14.042L9.7 11.58C9.694 11.675 9.687 11.771 9.687 11.866V11.857Z" fill="black"/>
</svg>

<svg xmlns="http://www.w3.org/2000/svg" viewBox="0 0 24 24">
  <path d="M17.311 18.047a.54.54 0 00.762-.762L6.435 5.655a.541.541 0 00-.769.762l11.645 11.63zM17.963 16c2.021-1.34 3.333-3.179 3.333-4 0-1.406-3.831-5.9-9.4-5.9a10.271 10.271 0 00-3.281.535l1.833 1.832a3.69 3.69 0 011.45-.293A3.825 3.825 0 0115.751 12c.003.498-.105.991-.315 1.443L17.963 16zm-6.064 1.9a10.069 10.069 0 003.508-.615l-1.846-1.846a3.616 3.616 0 01-1.663.4A3.864 3.864 0 018.046 12a3.8 3.8 0 01.388-1.68L6.024 7.9c-2.175 1.366-3.53 3.277-3.53 4.1 0 1.4 3.906 5.908 9.406 5.908l-.001-.008zm2.212-6.05a2.187 2.187 0 00-2.2-2.19 1.34 1.34 0 00-.249.015l2.438 2.44c0-.081.01-.169.01-.257l.001-.008zm-4.424.007a2.216 2.216 0 002.483 2.185L9.7 11.58c-.006.095-.013.191-.013.286v-.009z"/>
</svg>
